Obsidian/actions/24s/filename-space-amarok.svg

<svg height="24" viewBox="0 0 24 24" width="24" xmlns="http://www.w3.org/2000/svg"><path d="m3 10a1.0001 1.0001 0 0 0 -1 1v2a1.0001 1.0001 0 0 0 1 1h10a1.0001 1.0001 0 0 0 1-1v-2a1.0001 1.0001 0 0 0 -1-1h-1a1.0001 1.0001 0 0 0 -1 1h-6a1.0001 1.0001 0 0 0 -1-1z" fill="#bebebe" transform="translate(4 4)"/></svg>

<svg xmlns="http://www.w3.org/2000/svg" width="24" height="24" viewBox="0 0 24 24">
 <defs>
  <style id="current-color-scheme" type="text/css">
   .ColorScheme-Text { color:#bebebe; } .ColorScheme-Highlight { color:#4285f4; }
  </style>
 </defs>
 <path style="fill:currentColor" class="ColorScheme-Text" d="M 3 10 A 1.0001 1.0001 0 0 0 2 11 L 2 13 A 1.0001 1.0001 0 0 0 3 14 L 13 14 A 1.0001 1.0001 0 0 0 14 13 L 14 11 A 1.0001 1.0001 0 0 0 13 10 L 12 10 A 1.0001 1.0001 0 0 0 11 11 L 5 11 A 1.0001 1.0001 0 0 0 4 10 L 3 10 z" transform="translate(4 4)"/>
</svg>
